lib/logo_tmp/nrk-logo-nrk-trafikk-on-light.svg

<svg width="106" height="16" viewBox="0 0 106 16" fill="none" xmlns="http://www.w3.org/2000/svg">
<path d="M0 14.9998V1.00111H4.59339V14.9998H0ZM10.8428 3.22908L13.4844 14.9998H8.45737L5.30307 1.00111H8.12254C8.76907 0.992718 9.39641 1.22063 9.88691 1.64196C10.3782 2.04562 10.7158 2.60598 10.8428 3.22908ZM14.1744 14.9998V1.00111H18.7678V14.9998H14.1744ZM22.2372 6.32462C21.7422 6.32945 21.2552 6.19994 20.828 5.94996C20.4064 5.70631 20.0563 5.35612 19.8127 4.93454C19.5624 4.50722 19.4329 4.02006 19.4378 3.52487C19.4321 3.03271 19.5618 2.54845 19.8127 2.125C20.0589 1.70799 20.4086 1.36161 20.828 1.11944C21.2553 0.869757 21.7423 0.740271 22.2372 0.744785C22.7292 0.739486 23.2133 0.869088 23.6369 1.11944C24.0521 1.36374 24.3981 1.70982 24.6424 2.125C24.893 2.54857 25.0226 3.03275 25.0172 3.52487C25.0218 4.02002 24.8923 4.5071 24.6424 4.93454C24.4007 5.35427 24.0542 5.70416 23.6369 5.94996C23.2133 6.20081 22.7289 6.33044 22.2366 6.32462H22.2372ZM25.7269 14.9998V1.00111H30.3207V14.9998H25.7269ZM36.136 8.65111C36.1489 8.66469 36.2475 8.8257 36.4317 9.13415C36.6159 9.44261 36.8558 9.83697 37.1513 10.3172C37.447 10.7972 37.759 11.3065 38.0874 11.8452C38.4157 12.3839 38.7247 12.8933 39.0143 13.3732C39.3028 13.8532 39.6313 14.3954 40 14.9998H34.9531C34.6375 14.4872 34.3515 14.0239 34.0952 13.6098C33.8389 13.1958 33.5665 12.7489 33.2778 12.2691C32.9884 11.7898 32.7024 11.3231 32.4196 10.8692C32.1368 10.4153 31.8938 10.0177 31.6905 9.6764C31.4863 9.33487 31.3449 9.10481 31.2663 8.9863C31.0713 8.69219 30.9559 8.35251 30.9315 8.00047C30.951 7.66259 31.0597 7.33598 31.2466 7.0538C31.3254 6.92236 31.47 6.689 31.6803 6.35382C31.8906 6.01864 32.137 5.62107 32.4196 5.16101C32.7021 4.70096 32.9882 4.23104 33.2778 3.75127C33.5674 3.27151 33.8398 2.82128 34.0952 2.40066C34.3519 1.98048 34.6379 1.51385 34.9531 1.00079H40L36.0962 7.36925C35.9754 7.55833 35.9073 7.77624 35.8991 8.00047C35.9121 8.23588 35.9942 8.46221 36.1353 8.65111H36.136Z" fill="#0A2343"/>
<path d="M56.4709 1.06264H45.3333V2.79603H49.8713V15.0479H51.9521V2.79603H56.4706L56.4709 1.06264Z" fill="#1767CE"/>
<path d="M60.5336 4.93335C60.1631 5.03239 59.8091 5.18504 59.4832 5.3864C59.1453 5.59624 58.8328 5.84409 58.5519 6.12505C58.505 6.17167 58.4593 6.22357 58.4131 6.27249V4.80535L56.3917 5.10078V15.048H58.4131V7.60633C58.5632 7.50206 58.7187 7.40553 58.8789 7.31711C59.0769 7.20837 59.282 7.11281 59.4928 7.03114C59.698 6.95235 59.9058 6.88344 60.1175 6.82468C60.335 6.76427 60.557 6.72135 60.7814 6.69632C61.0215 6.66993 61.2635 6.66333 61.5047 6.6766L61.7425 4.82503C61.3363 4.79618 60.9281 4.83275 60.5336 4.93335Z" fill="#1767CE"/>
<path d="M71.9092 13.8068C71.7643 13.8201 71.6184 13.7984 71.4838 13.7435C71.3492 13.6886 71.23 13.6022 71.1362 13.4916C70.9525 13.176 70.876 12.8099 70.9183 12.4477L70.9579 8.38998C70.9622 7.96459 70.9089 7.54057 70.7993 7.12935C70.7031 6.76868 70.542 6.4283 70.3237 6.12476C70.1032 5.82792 69.8232 5.57977 69.5013 5.39596C69.1273 5.18477 68.723 5.03197 68.3023 4.94291C67.788 4.83278 67.2628 4.78003 66.7366 4.78566C66.3193 4.78538 65.9025 4.81159 65.4885 4.86413C65.0972 4.91302 64.7097 4.98873 64.3288 5.09067C63.9758 5.18583 63.6285 5.30089 63.2887 5.43535L63.0506 7.10963C63.3809 6.99145 63.6947 6.89299 63.9919 6.8142C64.2892 6.73541 64.5765 6.66972 64.854 6.6172C65.1258 6.56541 65.4004 6.52935 65.6764 6.50919C65.947 6.48928 66.2147 6.47934 66.4794 6.47934C66.8835 6.47077 67.2869 6.51714 67.6784 6.6172C67.9638 6.68836 68.2264 6.83073 68.441 7.03085C68.6322 7.22562 68.7688 7.46668 68.8374 7.73011C68.9222 8.05491 68.9623 8.38965 68.9566 8.72516L68.9543 9.2176L66.6376 9.37353C65.8453 9.39566 65.0648 9.56957 64.3388 9.88569C63.7955 10.122 63.3265 10.4997 62.9812 10.9789C62.6883 11.4054 62.5328 11.9103 62.5353 12.4267C62.5316 12.9112 62.6509 13.3888 62.8821 13.8153C63.1246 14.2535 63.4893 14.6126 63.9324 14.8495C64.4731 15.129 65.0773 15.2647 65.6863 15.2434C66.2571 15.2564 66.8252 15.1629 67.3613 14.9676C67.8246 14.7875 68.2484 14.5199 68.6095 14.1797C68.7466 14.049 68.8766 13.9113 68.9992 13.7671C69.0379 13.971 69.1104 14.167 69.2139 14.3472C69.3904 14.6488 69.6621 14.8842 69.9868 15.0169C70.3457 15.1601 70.7297 15.2305 71.1164 15.2237C71.2353 15.2237 71.351 15.2204 71.4635 15.2139C71.5737 15.2075 71.6831 15.191 71.7902 15.1646C71.8959 15.1383 71.9914 15.1154 72.0776 15.0957C72.1552 15.0785 72.2314 15.0554 72.3055 15.0267L72.5238 13.707C72.4142 13.7442 72.3013 13.7706 72.1865 13.7858C72.0946 13.7986 72.002 13.8056 71.9092 13.8068ZM68.9388 12.6102C68.8379 12.7228 68.7274 12.8266 68.6085 12.9204C68.3936 13.0892 68.161 13.2345 67.9149 13.3537C67.6697 13.4723 67.4099 13.5584 67.1423 13.6098C66.8647 13.6631 66.5827 13.6895 66.3001 13.6886C65.977 13.6978 65.6557 13.6373 65.3584 13.5113C65.1166 13.4071 64.9127 13.2318 64.7741 13.0091C64.6367 12.773 64.568 12.5036 64.5758 12.231C64.5567 11.9026 64.6473 11.5772 64.8335 11.3052C65.0492 11.0549 65.3416 10.8819 65.6658 10.8128C66.1721 10.6944 66.6918 10.6414 67.2117 10.6552H68.947L68.9388 12.6102Z" fill="#1767CE"/>
<path d="M79.3702 0.333913C79.1654 0.294518 78.9574 0.264966 78.746 0.245268C78.5346 0.225571 78.31 0.215693 78.0722 0.215693C77.6416 0.212949 77.2134 0.279498 76.8042 0.4127C76.4152 0.539861 76.0597 0.75186 75.7637 1.03318C75.4574 1.32948 75.2206 1.68929 75.0701 2.08698C74.8949 2.56639 74.8109 3.07401 74.8224 3.58397V5.00221H73.3361V6.5386H74.8224V15.0479H76.8438V6.5386H79.6183V5.00221H76.8438V3.36733C76.8395 3.14261 76.8764 2.919 76.9528 2.70746C77.0175 2.52871 77.1225 2.367 77.2596 2.2347C77.4033 2.10351 77.5768 2.0089 77.7653 1.95894C77.9878 1.89764 78.2179 1.86779 78.4487 1.8703C78.6076 1.8703 78.7589 1.87721 78.9048 1.89001C79.0508 1.90282 79.1919 1.92282 79.3309 1.94908C79.47 1.97535 79.6014 2.00161 79.7273 2.02787C79.8392 2.05002 79.9488 2.08303 80.0543 2.12637L79.975 0.491487C79.7771 0.42585 79.5751 0.373216 79.3702 0.333913Z" fill="#1767CE"/>
<path d="M81.5797 15.048H83.6011V4.80535L81.5797 5.10078V15.048Z" fill="#1767CE"/>
<path d="M83.3138 0.678441C83.1081 0.553517 82.8712 0.488686 82.6301 0.491332C82.386 0.489381 82.146 0.554094 81.9364 0.678441C81.7298 0.798767 81.5562 0.967911 81.4311 1.17088C81.3052 1.37527 81.24 1.61085 81.2429 1.85047C81.2407 2.09309 81.3058 2.3316 81.4311 2.53987C81.5523 2.7459 81.7268 2.91593 81.9364 3.03231C82.1481 3.15064 82.3873 3.21173 82.6301 3.20956C82.8699 3.21239 83.106 3.15119 83.3138 3.03231C83.5177 2.91505 83.6855 2.74481 83.7994 2.53987C83.9184 2.3295 83.9799 2.09181 83.9777 1.85047C83.9806 1.61215 83.919 1.37742 83.7994 1.17088C83.6816 0.968868 83.5147 0.79953 83.3138 0.678441Z" fill="#1767CE"/>
<path d="M95.3134 5.00215H92.8362L89.4451 8.70529H88.7141V0.176234L86.6927 0.471704V15.0479H88.7141V10.222H88.7472L92.7963 15.0479H95.4122L90.6051 9.66388L95.3134 5.00215Z" fill="#1767CE"/>
<path d="M101.009 9.61208L105.718 4.95031H103.241L99.8494 8.65345H99.1184V0.124756L97.097 0.420227V14.9964H99.1184V10.1705H99.1515L103.201 14.9964H105.817L101.009 9.61208Z" fill="#1767CE"/>
</svg>

<svg xmlns="http://www.w3.org/2000/svg" viewBox="0 0 106 16"><path fill="#0A2343" d="M0 15V1h4.593V15H0ZM10.843 3.23 13.484 15H8.457L5.303 1h2.82a2.655 2.655 0 0 1 1.764.641c.491.404.829.964.956 1.587ZM14.174 15V1h4.594V15h-4.594Zm8.063-8.675a2.737 2.737 0 0 1-1.409-.375 2.778 2.778 0 0 1-1.015-1.015 2.735 2.735 0 0 1-.375-1.41 2.685 2.685 0 0 1 .375-1.4 2.812 2.812 0 0 1 3.824-1.006c.415.245.761.59 1.005 1.006.251.424.38.908.375 1.4.005.495-.125.982-.375 1.41a2.8 2.8 0 0 1-1.005 1.015c-.424.25-.908.38-1.4.375ZM25.727 15V1h4.594V15h-4.594ZM36.136 8.65c.013.014.111.175.296.483.184.309.424.703.72 1.183a384.573 384.573 0 0 1 1.862 3.056c.289.48.617 1.022.986 1.627h-5.047l-.858-1.39c-.256-.414-.529-.861-.817-1.34-.29-.48-.576-.947-.858-1.4a71.148 71.148 0 0 1-.73-1.194 21.096 21.096 0 0 0-.424-.69A2.04 2.04 0 0 1 30.932 8c.019-.337.128-.664.315-.946.078-.132.223-.365.433-.7a216.7 216.7 0 0 0 1.598-2.603l.817-1.35.858-1.4H40l-3.904 6.368c-.12.19-.189.407-.197.631.013.236.095.462.236.651h.001Z"/><path fill="#1767CE" d="M56.47 1.063H45.334v1.733h4.538v12.252h2.081V2.796h4.519V1.063ZM60.534 4.933c-.37.1-.725.252-1.05.453-.339.21-.651.458-.932.739-.047.047-.093.099-.139.147V4.805l-2.021.296v9.947h2.021V7.606a5.111 5.111 0 0 1 1.08-.575c.205-.079.413-.148.625-.206a4.235 4.235 0 0 1 1.387-.148l.237-1.852a3.802 3.802 0 0 0-1.208.108ZM71.91 13.807a.907.907 0 0 1-.774-.315 1.686 1.686 0 0 1-.218-1.044l.04-4.058a4.71 4.71 0 0 0-.159-1.26 3.08 3.08 0 0 0-.475-1.005 2.68 2.68 0 0 0-.823-.729 4.213 4.213 0 0 0-1.199-.453 7.115 7.115 0 0 0-1.565-.157 9.86 9.86 0 0 0-1.248.078 8.62 8.62 0 0 0-1.16.227c-.353.095-.7.21-1.04.344L63.05 7.11a11.718 11.718 0 0 1 1.803-.493c.272-.052.546-.088.822-.108.271-.02.539-.03.803-.03a4.46 4.46 0 0 1 1.2.138c.285.071.547.214.762.414.191.195.328.436.396.7.085.324.125.659.12.994l-.003.493-2.316.156a6.192 6.192 0 0 0-2.3.512 3.29 3.29 0 0 0-1.357 1.093 2.535 2.535 0 0 0-.446 1.448c-.003.484.116.962.347 1.388.243.439.607.798 1.05 1.035a3.55 3.55 0 0 0 1.754.393c.571.013 1.14-.08 1.675-.275a3.86 3.86 0 0 0 1.248-.788c.138-.131.268-.269.39-.413.039.204.111.4.215.58.176.302.448.537.773.67a2.91 2.91 0 0 0 1.13.207c.118 0 .234-.004.346-.01.11-.007.22-.023.327-.05.106-.026.201-.049.288-.068.077-.018.153-.04.227-.07l.219-1.319c-.11.037-.223.064-.338.079-.091.013-.184.02-.277.02Zm-2.971-1.197c-.101.113-.212.217-.33.31a3.816 3.816 0 0 1-.694.434 3.13 3.13 0 0 1-.773.256c-.277.053-.56.08-.842.079a2.25 2.25 0 0 1-.942-.178 1.289 1.289 0 0 1-.584-.502 1.464 1.464 0 0 1-.198-.778c-.02-.328.071-.654.258-.926.215-.25.508-.423.832-.492a6.081 6.081 0 0 1 1.546-.158h1.735l-.008 1.955ZM79.37.334a6.49 6.49 0 0 0-1.298-.118 4.014 4.014 0 0 0-1.268.197c-.389.127-.744.339-1.04.62a2.889 2.889 0 0 0-.694 1.054c-.175.48-.26.987-.248 1.497v1.418h-1.486V6.54h1.486v8.509h2.022v-8.51h2.774V5.003h-2.774V3.367a1.839 1.839 0 0 1 .109-.66c.064-.178.17-.34.307-.472a1.21 1.21 0 0 1 .505-.276c.223-.061.453-.091.684-.089.159 0 .31.007.456.02.146.013.287.033.426.06.139.025.27.052.396.078.112.022.222.055.327.098L79.975.491a4.784 4.784 0 0 0-.605-.157ZM81.58 15.048H83.6V4.805l-2.021.296v9.947ZM83.314.678a1.29 1.29 0 0 0-.684-.187 1.339 1.339 0 0 0-.694.187c-.206.12-.38.29-.505.493-.126.204-.191.44-.188.68-.002.242.063.48.188.689.121.206.296.376.505.492.212.119.451.18.694.178.24.002.476-.059.684-.178.204-.117.372-.287.485-.492.12-.21.18-.448.179-.69a1.324 1.324 0 0 0-.179-.68 1.396 1.396 0 0 0-.485-.492ZM95.313 5.002h-2.477l-3.39 3.703h-.732V.176l-2.021.296v14.576h2.021v-4.826h.033l4.05 4.826h2.615l-4.807-5.384 4.708-4.662ZM101.009 9.612l4.709-4.662h-2.477l-3.392 3.703h-.73V.125L97.096.42v14.576h2.021v-4.825h.034l4.049 4.825h2.616l-4.808-5.384Z"/></svg>
